X: 74
T:Sailor's Wedding. JBi.73
M:C|
Q:180
S:James Biggins MS,Leeds,1779
R:Reel
O:England
A:Yorkshire
Z:vmp.Chris Partington
K:F
D2|(FGAF) ECGE|FDGD FDGD|(FGAF) ECGE|fdgd f2d2||!
fg(af) ecge|fdad fdad|fg(af) ecge|fdgf f2d2||
